src/shared/assets/me/icon-about.svg

<svg preserveAspectRatio="none" width="100%" height="100%" overflow="visible" style="display: block;" viewBox="0 0 20.5332 12.4089" fill="none" xmlns="http://www.w3.org/2000/svg">
<g id="Group 2117132527">
<path id="Vector 7429" d="M0.339839 10.4466C0.149777 9.85394 0.99335 8.28278 1.65329 7.63178L3.01377 10.1182C3.01377 10.1182 0.529902 11.0392 0.339839 10.4466Z" fill="var(--fill-0, #F0DA9C)"/>
<path id="Vector 7428" d="M1.55979 7.63178C1.55979 7.63178 -0.363631 10.212 0.481057 10.5873C1.04981 10.84 2.12292 9.46139 2.12292 9.46139" stroke="var(--stroke-0, black)" stroke-width="0.533254" stroke-linecap="round" stroke-linejoin="round"/>
<g id="Vector 7401">
<path d="M4.23747 1.90757C-0.275602 4.89033 2.39848 9.64927 2.39848 9.64927C2.39848 9.64927 1.03777 9.64927 1.22546 10.8221C1.41316 11.9949 3.64718 11.948 5.33605 11.948C7.0181 11.948 7.87695 11.5943 8.17621 11.4711L8.17983 11.4696C8.20157 12.0384 11.0172 12.2099 14.527 12.1196C18.6887 12.0126 18.7711 9.92594 18.7711 9.92594C18.7711 9.92594 19.332 11 19.897 10.6344C20.8267 10.0328 19.7452 7.40762 19.4493 6.55457C19.854 5.49844 19.7285 2.17417 15.9424 0.84102C13.2067 -0.122273 7.03762 0.0569073 4.23747 1.90757Z" fill="var(--fill-0, #F0DA9C)"/>
<path d="M8.17983 11.4696C8.20157 12.0384 11.0172 12.2099 14.527 12.1196C18.6887 12.0126 18.7711 9.92594 18.7711 9.92594C18.7711 9.92594 19.332 11 19.897 10.6344C20.8267 10.0328 19.7452 7.40762 19.4493 6.55457C19.854 5.49844 19.7285 2.17417 15.9424 0.84102C13.2067 -0.122273 7.03762 0.0569073 4.23747 1.90757C-0.275602 4.89033 2.39848 9.64927 2.39848 9.64927C2.39848 9.64927 1.03777 9.64927 1.22546 10.8221C1.41316 11.9949 3.64718 11.948 5.33605 11.948C7.02493 11.948 7.88391 11.5914 8.17983 11.4696ZM8.17983 11.4696C8.13948 10.4134 8.34132 9.92594 10.3591 9.92594" stroke="var(--stroke-0, black)" stroke-width="0.533254" stroke-linecap="round" stroke-linejoin="round"/>
</g>
<g id="Group 2117132525">
<path id="Vector 7399" d="M8.57681 6.59012C8.57681 6.59012 9.00407 6.59652 9.4616 6.5606C9.91913 6.52467 10.0523 6.25139 10.0523 6.25139" stroke="var(--stroke-0, black)" stroke-width="0.482271" stroke-linecap="round" stroke-linejoin="round"/>
<circle id="Ellipse 111799" cx="5.82492" cy="5.40268" r="1.23439" fill="var(--fill-0, white)" stroke="var(--stroke-0, black)" stroke-width="0.482271"/>
<ellipse id="Ellipse 111800" cx="5.31607" cy="5.23468" rx="0.821401" ry="1.01815" fill="var(--fill-0, black)"/>
<circle id="Ellipse 111801" cx="12.0956" cy="4.66493" r="1.04995" fill="var(--fill-0, white)" stroke="var(--stroke-0, black)" stroke-width="0.482271"/>
<ellipse id="Ellipse 111802" cx="11.7272" cy="4.58346" rx="0.613391" ry="0.84086" transform="rotate(15.0268 11.7272 4.58346)" fill="var(--fill-0, black)"/>
</g>
</g>
</svg>

<svg xmlns="http://www.w3.org/2000/svg" fill="none" overflow="visible" preserveAspectRatio="none" style="display:block" viewBox="0 0 20.533 12.409"><path fill="var(--fill-0, #f0da9c)" d="M.34 10.447c-.19-.593.653-2.164 1.313-2.815l1.36 2.486S.53 11.04.34 10.447"/><path stroke="var(--stroke-0, black)" stroke-linecap="round" stroke-linejoin="round" stroke-width=".533" d="M1.56 7.632s-1.924 2.58-1.08 2.955c.569.253 1.642-1.126 1.642-1.126"/><path fill="var(--fill-0, #f0da9c)" d="M4.237 1.908C-.276 4.89 2.398 9.649 2.398 9.649s-1.36 0-1.173 1.173 2.422 1.126 4.111 1.126c1.682 0 2.54-.354 2.84-.477l.004-.001c.022.568 2.837.74 6.347.65 4.162-.107 4.244-2.194 4.244-2.194s.561 1.074 1.126.708c.93-.601-.152-3.226-.448-4.08.405-1.056.28-4.38-3.507-5.713C13.207-.122 7.038.057 4.237 1.908"/><path stroke="var(--stroke-0, black)" stroke-linecap="round" stroke-linejoin="round" stroke-width=".533" d="M8.18 11.47c.022.568 2.837.74 6.347.65 4.162-.107 4.244-2.194 4.244-2.194s.561 1.074 1.126.708c.93-.601-.152-3.226-.448-4.08.405-1.056.28-4.38-3.507-5.713C13.207-.122 7.038.057 4.237 1.908-.276 4.89 2.398 9.649 2.398 9.649s-1.36 0-1.173 1.173 2.422 1.126 4.111 1.126 2.548-.357 2.844-.478m0 0c-.04-1.057.161-1.544 2.18-1.544"/><path stroke="var(--stroke-0, black)" stroke-linecap="round" stroke-linejoin="round" stroke-width=".482" d="M8.577 6.59s.427.007.885-.03c.457-.035.59-.309.59-.309"/><circle cx="5.825" cy="5.403" r="1.234" fill="var(--fill-0, white)" stroke="var(--stroke-0, black)" stroke-width=".482"/><ellipse cx="5.316" cy="5.235" fill="var(--fill-0, black)" rx=".821" ry="1.018"/><circle cx="12.096" cy="4.665" r="1.05" fill="var(--fill-0, white)" stroke="var(--stroke-0, black)" stroke-width=".482"/><ellipse cx="11.727" cy="4.583" fill="var(--fill-0, black)" rx=".613" ry=".841" transform="rotate(15.027 11.727 4.583)"/></svg>
